image/sun.svg

<svg width="27" height="27" viewBox="0 0 40 35" fill="none" xmlns="http://www.w3.org/2000/svg">
<g clip-path="url(#clip0_10_53)">
<path d="M19.8521 3.24013L24.279 0.216407C24.5563 0.0269672 24.9373 0.129038 25.0827 0.431821L27.4047 5.26394C27.4525 5.36345 27.5292 5.44623 27.6248 5.50143C27.7204 5.55664 27.8304 5.5817 27.9405 5.57335L33.2862 5.16811C33.6211 5.14275 33.9 5.42161 33.8746 5.75654L33.4694 11.1022C33.461 11.2123 33.4861 11.3223 33.5413 11.4179C33.5965 11.5136 33.6793 11.5903 33.7788 11.6381L38.6109 13.96C38.9137 14.1055 39.0158 14.4864 38.8263 14.7638L35.8026 19.1907C35.7403 19.2818 35.707 19.3896 35.707 19.5C35.707 19.6104 35.7403 19.7183 35.8026 19.8094L38.8263 24.2363C39.0158 24.5136 38.9137 24.8946 38.6109 25.0401L33.7788 27.362C33.6793 27.4098 33.5965 27.4865 33.5413 27.5821C33.4861 27.6777 33.461 27.7878 33.4694 27.8979L33.8746 33.2435C33.9 33.5785 33.6211 33.8573 33.2862 33.832L27.9405 33.4267C27.8304 33.4184 27.7204 33.4434 27.6248 33.4987C27.5292 33.5539 27.4525 33.6366 27.4047 33.7361L25.0827 38.5683C24.9372 38.871 24.5563 38.9731 24.279 38.7837L19.8521 35.76C19.7609 35.6977 19.6531 35.6644 19.5427 35.6644C19.4323 35.6644 19.3245 35.6977 19.2333 35.76L14.8064 38.7837C14.5291 38.9731 14.1481 38.871 14.0027 38.5683L11.6807 33.7361C11.6329 33.6366 11.5562 33.5539 11.4606 33.4987C11.365 33.4434 11.2549 33.4184 11.1449 33.4267L5.79919 33.832C5.46427 33.8573 5.1854 33.5785 5.21077 33.2435L5.616 27.8979C5.62435 27.7878 5.59929 27.6777 5.54409 27.5821C5.48888 27.4865 5.40611 27.4098 5.30659 27.362L0.474399 25.0401C0.171615 24.8946 0.069545 24.5136 0.258985 24.2363L3.2827 19.8094C3.34498 19.7183 3.37829 19.6104 3.37829 19.5C3.37829 19.3896 3.34498 19.2818 3.2827 19.1907L0.259061 14.7637C0.0696212 14.4864 0.171692 14.1054 0.474475 13.9599L5.30659 11.638C5.40611 11.5902 5.48888 11.5135 5.54409 11.4179C5.59929 11.3223 5.62435 11.2122 5.616 11.1021L5.21077 5.75646C5.1854 5.42154 5.46427 5.14267 5.79919 5.16804L11.1449 5.57327C11.2549 5.58162 11.365 5.55656 11.4606 5.50136C11.5562 5.44615 11.6329 5.36338 11.6807 5.26386L14.0027 0.431745C14.1482 0.128961 14.5291 0.026891 14.8064 0.21633L19.2333 3.24005C19.3245 3.30233 19.4323 3.33566 19.5427 3.33568C19.6531 3.33569 19.7609 3.30239 19.8521 3.24013Z" fill="#FFC639"/>
<path d="M19.5427 34.3089C27.7214 34.3089 34.3516 27.6788 34.3516 19.5C34.3516 11.3212 27.7214 4.69104 19.5427 4.69104C11.3639 4.69104 4.7337 11.3212 4.7337 19.5C4.7337 27.6788 11.3639 34.3089 19.5427 34.3089Z" fill="#FFE564"/>
</g>
<defs>
<clipPath id="clip0_10_53">
<rect width="39" height="39" fill="white"/>
</clipPath>
</defs>
</svg>

<svg width="27" height="27" viewBox="0 0 40 35" fill="none" xmlns="http://www.w3.org/2000/svg"><g clip-path="url(#clip0_10_53)"><path d="M19.9 3.2l4.4-3c.3-.2.7-.1.7.2l2.4 4.9.2.2.4.1 5.3-.4c.3-.1.6.2.6.6l-.4 5.3v.3l.3.2 4.8 2.4c.4.1.4.5.2.8l-3 4.4-.1.3.1.3 3 4.4c.2.3.2.7-.2.8l-4.8 2.4-.3.2v.3l.4 5.3c0 .4-.3.7-.6.6l-5.3-.4-.4.1-.2.2-2.4 4.9c0 .3-.4.4-.7.2l-4.4-3-.4-.1-.3.1-4.4 3c-.3.2-.7.1-.8-.2l-2.3-4.9-.2-.2-.4-.1-5.3.4c-.3.1-.6-.2-.6-.6l.4-5.3-.1-.3-.2-.2L.5 25c-.3-.1-.5-.5-.2-.8l3-4.4.1-.3-.1-.3-3-4.4c-.3-.3-.1-.7.2-.8l4.8-2.4.2-.2.1-.3-.4-5.3c0-.4.3-.7.6-.6l5.3.4.4-.1.2-.2L14 .4c.1-.3.5-.4.8-.2l4.4 3 .3.1.4-.1z" fill="#FFC639"/><path d="M19.5 34.3c8.2 0 14.9-6.6 14.9-14.8 0-8.2-6.7-14.8-14.9-14.8-8.1 0-14.8 6.6-14.8 14.8 0 8.2 6.7 14.8 14.8 14.8z" fill="#FFE564"/></g><defs><clipPath id="clip0_10_53"><path fill="#fff" d="M0 0h39v39H0z"/></clipPath></defs></svg>
